X:1
T: Cheticamp Jig
C:
R:Jig
Q:180
K:A
M:6/8
L:1/16
c'4a2 e4c2|A6 A2E2D2|C2E2A2 c2e2a2|g6 g2a2g2|f4d2 B4A2|G6 G2B2A2|G2F2E2 G2E2D2|C6 C2a2b2|
c'4a2 e4c2|A6 A2E2D2|C2E2A2 c2e2a2|g6 g2a2g2|f4d2 B4A2|G6 G2B2A2|G2F2E2 E2F2G2|A6 A2C2B,2|
A,4C2 E4A2|c6 e6|c2A2e2 c2A2e2|B6 B2G2F2|E4G2 B4c2|d6 a6|g2f2e2 d2c2B2|c6 c2C2B,2|
A,4C2 E4A2|c6 e6|c2A2e2 c2A2e2|B6 B2G2F2|E4G2 B4c2|d6 a6|g2f2e2 d2c2B2|A6 A6||
